!!!!SEGMENT: pl-sa--572-a-ix-52--002_anonim--preludium.krn
!!!cenid: 18xx:656
!!!COM: Anonim
!!!COM-rismid: pe30004985
!!!CDT:
!!!CNT:
!!!OTL: Preludium
!!!PDT:
!!!AGN: Secular; Prelude
!!!SMS-siglum: PL-SA
!!!SMS-shelfmark: 572/A IX 52
!!!SMS-shelfwork: 002 W
!!!SMS-variant:
!!!SMS-altvar:
!!!NIFC-rismid: 1001092012
!!!system-decoration: {(s1,s2)}
**kern	**kern
*part2	*part1
*staff2	*staff1
*Iempty	*Ipiano
*	*I"Piano
*	*I'Pno.
*clefF4	*clefG2
*k[]	*k[]
*C:	*C:
*M3/4	*M3/4
=1	=1
*	*2\right
!LO:TX:a:t=P:wszystkie nuty mają caudy z prawej strony:problem	!LO:TX:a:t=P:wszystkie nuty mają caudy z prawej strony:problem
!	!LO:TX:b:Bi:t=Preludium
4C\	8gL 8e/
.	8gJ 8e/
8r	4.ee 4.g\
8C\L	.
8E\	.
8G\J	8dd 8f\
=2	=2
4C/	16dd\LL
.	16cc\
.	16b\
.	16cc\JJ
8r	4g 4e/
8C\L	.
8E\	4r
8G\J	.
=3	=3
4FF/	8aL 8f/
.	8aJ 8f/
8F\	8r
8r	16ccLL 16a\
.	16bJJ 16g\
4FF/	16ddLL 16b\
.	16cc 16a\
.	16b 16g\
.	16aJJ 16f\
=4	=4
8CC/L	16aLL 16f/
.	16g 16e/
8C/	16f#X 16d#X/
.	16gJJ 16e/
8E/	4e 4c/
8C/	.
8E/	4r
8C/J	.
=5	=5
.	8qf#X/
4GG/	8g/
.	32a/LLL
.	32g/
.	32f#/
.	32g/JJJ
8r	4.ff 4.dd\
8GG/L	.
8BB/	.
8D/J	8dd 8b\
!!LO:LB:g=original
=6	=6
.	8qf#X/
4C/	8g/
.	32a/LLL
.	32g/
.	32f#/
.	32g/JJJ
8r	4.ee 4.g\
8C\L	.
8E\	.
8G\J	8cc 8g\
=7	=7
4F\	8ee\L
.	8dd\
4D\	8ff\
.	8dd\
4G\	8cc\
.	8b\J
=8	=8
4c\	8ccL 8f\
.	8ccJ 8e\
2C/	2cc 2e\
!LO:TX:a:t=P:ozdobna kreska końcowa:problem	!LO:TX:a:t=P:ozdobna kreska końcowa:problem
==	==
*-	*-
!!title: @{OTL};
!!!RDF**kern: > = above
!!!RDF**kern: < = below
!!!EED: Wojciech Jakubiak-Danek
!!!EST: 2020-12-10
!!!URL-scan: http://bc.bdsandomierz.pl/dlibra/publication/1378/edition/1346/content
!!!ONB-nifc: Str. 1, s. 3-4
!!!AIN: 1 empty 1 piano
!!!ENC: Marta Chmielewska
!!!END: 2020-06-19
